src/assets/icons/drink.svg

<svg width="19" height="32" viewBox="0 0 19 32" fill="none" xmlns="http://www.w3.org/2000/svg">
<path d="M10.6053 6.51327V3.68142L16.5987 2.25693C17.149 2.12614 17.4814 1.56538 17.332 1.01987L17.3069 0.928159C17.1649 0.40989 16.6388 0.096457 16.1154 0.218419L9.16779 1.83755C8.71508 1.94305 8.39476 2.3466 8.39476 2.81145V6.51327H1.16669C0.614402 6.51327 0.166687 6.96099 0.166687 7.51327V11.115H18.8334V7.51327C18.8334 6.96099 18.3856 6.51327 17.8334 6.51327H10.6053Z" fill="#FF7010"/>
<path d="M0.252686 12.8848L2.79479 30.1591C2.94216 31.2211 3.90005 31.9998 4.96848 31.9998H13.9211C15.0264 31.9998 15.9474 31.2211 16.0948 30.1591L18.6369 12.8848H0.252686Z" fill="#FF7010"/>
</svg>

<svg xmlns="http://www.w3.org/2000/svg" width="19" height="32" fill="none"><path fill="#FF7010" d="M10.605 6.513V3.681L16.6 2.257a1 1 0 0 0 .733-1.237l-.025-.092a1 1 0 0 0-1.192-.71l-6.947 1.62a1 1 0 0 0-.773.973v3.702H1.167a1 1 0 0 0-1 1v3.602h18.666V7.513a1 1 0 0 0-1-1h-7.228ZM.253 12.885l2.542 17.274C2.942 31.221 3.9 32 4.968 32h8.953c1.105 0 2.026-.778 2.174-1.84l2.542-17.274H.253Z"/></svg>
